src/assets/icons/multiplier.svg

<svg width="20" height="21" viewBox="0 0 20 21" fill="none" xmlns="http://www.w3.org/2000/svg">
    <path d="M1.02299 2.92201C0.737836 2.92201 0.495455 2.99682 0.295847 3.14304C0.0998039 3.28586 0 3.45928 0 3.65311L0.0213866 17.2073C0.0213866 17.4011 0.12119 17.5745 0.320798 17.7207C0.520406 17.867 0.762787 17.9384 1.04794 17.9384H2.90144L2.90501 19.3053C2.90501 19.5162 3.00481 19.6964 3.20442 19.8426C3.40046 19.9888 3.63215 20.0602 3.89592 20.0602L16.1682 20.05C16.432 20.05 16.6637 19.9752 16.8633 19.829C17.0629 19.6828 17.1591 19.5026 17.1591 19.2917L17.1556 17.9248H18.9734C19.2586 17.9248 19.501 17.85 19.7006 17.7037C19.9002 17.5575 19.9964 17.3875 19.9964 17.1903L19.9786 3.6361C19.9786 3.44228 19.8788 3.26886 19.6792 3.12264C19.4796 2.97642 19.2372 2.90501 18.9521 2.90501H17.1342L17.1306 1.51423C17.1306 1.3204 17.0308 1.14698 16.8312 1.00076C16.6316 0.854542 16.3999 0.783133 16.1362 0.783133L3.86384 0.793333C3.60007 0.793333 3.36838 0.868145 3.16877 1.01436C2.97273 1.16058 2.87293 1.3306 2.87293 1.52783L2.87649 2.91861L1.02299 2.92201Z" fill="#FCCB28"/>
    <path d="M7.50239 5.60241C7.35726 5.60241 7.23445 5.64811 7.13397 5.73951C7.04466 5.82075 7 5.92739 7 6.05941V7.27808C7 7.4101 7.04466 7.52181 7.13397 7.61321C7.23445 7.69446 7.35726 7.73508 7.50239 7.73508H8.54067V8.69478C8.54067 8.8268 8.59091 8.93851 8.69139 9.02991C8.79187 9.12131 8.90909 9.16701 9.04306 9.16701H10.0981V10.1115C10.0981 10.2333 10.1483 10.34 10.2488 10.4314C10.3493 10.5228 10.4665 10.5685 10.6005 10.5685H11.5383V11.1473H10.5C10.366 11.1473 10.2488 11.193 10.1483 11.2844C10.0478 11.3758 9.99761 11.4825 9.99761 11.6043V12.564H8.95933C8.81419 12.564 8.69139 12.6097 8.59091 12.7011C8.5016 12.7824 8.45694 12.889 8.45694 13.021V13.9655H7.50239C7.35726 13.9655 7.23445 14.0112 7.13397 14.1026C7.04466 14.194 7 14.3007 7 14.4225V15.7478C7 15.8697 7.04466 15.9763 7.13397 16.0677C7.23445 16.1591 7.35726 16.2048 7.50239 16.2048H8.95933C9.0933 16.2048 9.21053 16.1591 9.31101 16.0677C9.41148 15.9763 9.46172 15.8697 9.46172 15.7478V14.8795H10.5C10.634 14.8795 10.7512 14.8338 10.8517 14.7424C10.9522 14.651 11.0024 14.5444 11.0024 14.4225V13.4781H12.0407C12.1858 13.4781 12.303 13.4324 12.3923 13.341C12.4928 13.2496 12.5431 13.1429 12.5431 13.021V12.0766H13.4976C13.6427 12.0766 13.76 12.0309 13.8493 11.9395C13.9498 11.8481 14 11.7364 14 11.6043V10.2943C14 10.1623 13.9498 10.0505 13.8493 9.95915C13.76 9.86775 13.6427 9.82205 13.4976 9.82205H12.4593V8.86235C12.4593 8.74048 12.4091 8.63385 12.3086 8.54245C12.2081 8.45105 12.0909 8.40535 11.9569 8.40535H10.9187V7.46088C10.9187 7.33901 10.8684 7.23238 10.7679 7.14098C10.6675 7.04958 10.5502 7.00388 10.4163 7.00388H9.36124V6.05941C9.36124 5.92739 9.31101 5.82075 9.21053 5.73951C9.12121 5.64811 9.00399 5.60241 8.85885 5.60241H7.50239Z" fill="white"/>
</svg>

<svg width="20" height="21" fill="none" xmlns="http://www.w3.org/2000/svg"><path d="M1.023 2.922c-.285 0-.528.075-.727.221C.1 3.286 0 3.459 0 3.653l.021 13.554c0 .194.1.367.3.514.2.146.442.217.727.217H2.9l.004 1.367c0 .211.1.391.3.538.195.146.427.217.69.217l12.273-.01c.264 0 .496-.075.695-.221.2-.146.296-.326.296-.537l-.003-1.367h1.817c.286 0 .528-.075.728-.221.2-.146.295-.317.295-.514L19.98 3.636c0-.194-.1-.367-.3-.513a1.196 1.196 0 0 0-.727-.218h-1.818l-.003-1.39c0-.195-.1-.368-.3-.514a1.143 1.143 0 0 0-.695-.218L3.864.793c-.264 0-.496.075-.695.221-.196.147-.296.317-.296.514l.003 1.39-1.853.004z" fill="#FCCB28"/><path d="M7.502 5.602a.528.528 0 0 0-.368.138.412.412 0 0 0-.134.32v1.218c0 .132.045.244.134.335.1.081.223.122.368.122h1.039v.96c0 .132.05.244.15.335.1.091.218.137.352.137h1.055v.944c0 .122.05.229.15.32.101.092.219.138.353.138h.937v.578H10.5a.506.506 0 0 0-.352.137.42.42 0 0 0-.15.32v.96H8.959a.528.528 0 0 0-.368.137.412.412 0 0 0-.134.32v.944h-.955a.528.528 0 0 0-.368.138.444.444 0 0 0-.134.32v1.325c0 .122.045.228.134.32.1.091.223.137.368.137H8.96a.506.506 0 0 0 .352-.137.42.42 0 0 0 .15-.32v-.868H10.5a.506.506 0 0 0 .352-.138.42.42 0 0 0 .15-.32v-.944h1.039a.47.47 0 0 0 .351-.137.42.42 0 0 0 .151-.32v-.944h.955a.47.47 0 0 0 .351-.137c.1-.092.151-.204.151-.336v-1.31a.436.436 0 0 0-.15-.335.47.47 0 0 0-.352-.137h-1.039v-.96a.42.42 0 0 0-.15-.32.506.506 0 0 0-.352-.137h-1.038v-.944a.42.42 0 0 0-.151-.32.506.506 0 0 0-.352-.137H9.361v-.945a.391.391 0 0 0-.15-.32.47.47 0 0 0-.352-.137H7.502z" fill="#fff"/></svg>
